assets/images/speen.svg

<svg width="100vmin" height="100vmin" viewBox="0 0 340 340" xmlns="http://www.w3.org/2000/svg" fill-rule="evenodd" clip-rule="evenodd" stroke-linejoin="round" stroke-miterlimit="2"><style>@keyframes rotate{from{transform:rotate(0)}to{transform:rotate(360deg)}}</style><path id="text" d="M104.26 279.309V92.146H71.496V66.804h87.644v25.34l-32.764.002v187.163m79.441 0c-9.874 0-17.365-2.805-22.265-8.337-5.083-5.735-7.66-14.546-7.66-26.189V101.33c0-11.643 2.577-20.454 7.66-26.19 4.898-5.53 12.39-8.334 22.264-8.334h32.764c19.855 0 29.924 11.614 29.924 34.524v27.801h-21.125v-19.957c0-10.503-6.033-17.027-15.748-17.027h-17.872c-9.86 0-15.75 6.365-15.75 17.027v127.764c0 10.663 5.89 17.028 15.75 17.028h17.87c9.862 0 15.75-6.365 15.75-17.027v-43.364h-16.88V168.23h38.004v76.555c0 22.91-10.068 34.524-29.924 34.524h-32.764.002z" fill="#a4b4c596" fill-rule="nonzero"/><g mask="url(#textmask)" fill="#a4b4c596"><path d="M52.637 76.985l-34.293 23.281 3.536 41.297-19.545 36.551 22.32 34.923-.321 41.444 35.993 20.552 18.978 36.847 41.422 1.473 33.926 23.808 37.364-17.95 41.103 5.317 24.741-33.256 38.866-14.401 6.45-40.939 27.726-30.81-13.316-39.251 10.23-40.165-30.029-28.569-9.608-40.318-39.866-11.342-27.244-31.234-40.569 8.485-38.639-14.997-31.981 26.367-41.18 4.678-16.065 38.209h.001zm164.124 203.757l17.013-23.69 28.163-10.316 4.233-29.641 20.242-22.182-10.017-28.107 7.683-28.966-21.972-20.134-6.635-29.114-28.894-7.548-19.434-22.593-29.196 6.767-27.78-10.897-22.81 19.532-29.763 3.297-11.198 27.822-24.927 16.735 2.979 29.739-14.381 26.339 16.474 24.842-.534 29.582 12.349 7.051 13.839 7.531 13.181 26.145 12.693.452.192.201 17.273.232 24.313 17.246 26.781-13.543 29.617 3.911.516-.693z" style="transform-origin:50% 50%;animation-name:rotate;animation-duration:6s;animation-iteration-count:infinite;animation-timing-function:linear"/></g><mask id="textmask"><path fill="#fff" d="M0 0h340v340H0z"/><path d="M274.325 244.784c0 26.336-12.66 40.345-35.744 40.345h-32.764c-8.33 0-14.878-2.482-20.736-5.29-14.579-6.987-16.017-38.658-16.017-38.658h-36.868v39.464c0 3.08-1.24 4.482-3.972 4.482h-25.811c-2.482 0-3.972-1.4-3.972-4.482v-30.777l-.31-.495.524-151.407H69.646c-2.482 0-3.972-1.682-3.972-4.483V65.464c0-2.8 1.49-4.48 3.973-4.48h61.604l27.295-.061c4.769-.383 6.373 1.937 6.073 5.881v24.618h6c2.168-19.875 15.212-31.314 38.13-30.439h29.832c23.085 0 35.744 14.008 35.744 40.345v17.55l.001 83.882v42.022l-.001.002z" fill-rule="nonzero"/></mask></svg>

<?xml version="1.0" encoding="UTF-8" standalone="no"?>
<!DOCTYPE svg PUBLIC "-//W3C//DTD SVG 1.1//EN" "http://www.w3.org/Graphics/SVG/1.1/DTD/svg11.dtd">
<svg
      width="100vmin"
      height="100vmin
              "
      viewBox="0 0 340 340"
      version="1.1"
      xmlns="http://www.w3.org/2000/svg"
      xmlns:xlink="http://www.w3.org/1999/xlink"
      xml:space="preserve"
      xmlns:serif="http://www.serif.com/"
      style="
        fill-rule: evenodd;
        clip-rule: evenodd;
        stroke-linejoin: round;
        stroke-miterlimit: 2;
      "
    >
      <style>
        @keyframes rotate {
        from {
            transform: rotate(0deg);
        }
        to {
            transform: rotate(360deg);
        }
        }
        #circleboi {
        transform-origin: 50% 50%;
        animation-name: rotate;
        animation-duration: 6s;
        animation-iteration-count: infinite;
        animation-timing-function: linear;
        }
      </style>
      <path
        id="text"
        d="M104.26,279.309L104.26,92.146L71.496,92.146L71.496,66.804L159.14,66.804L159.14,92.144L126.376,92.146L126.376,279.309M205.817,279.309C195.943,279.309 188.452,276.504 183.552,270.972C178.469,265.237 175.892,256.426 175.892,244.783L175.892,101.33C175.892,89.687 178.469,80.876 183.552,75.14C188.45,69.61 195.942,66.806 205.816,66.806L238.58,66.806C258.435,66.806 268.504,78.42 268.504,101.33L268.504,129.131L247.379,129.131L247.379,109.174C247.379,98.671 241.346,92.147 231.631,92.147L213.759,92.147C203.899,92.147 198.009,98.512 198.009,109.174L198.009,236.938C198.009,247.601 203.899,253.966 213.759,253.966L231.629,253.966C241.491,253.966 247.379,247.601 247.379,236.939L247.379,193.575L230.499,193.575L230.499,168.23L268.503,168.23L268.503,244.785C268.503,267.695 258.435,279.309 238.579,279.309L205.815,279.309L205.817,279.309Z"
        style="fill-rule: nonzero;" fill="#a4b4c596"
      />
      <g mask="url(#textmask)" fill="#a4b4c596">
        <path
          id="circleboi"
          d="M52.637,76.985L18.344,100.266L21.88,141.563L2.335,178.114L24.655,213.037L24.334,254.481L60.327,275.033L79.305,311.88L120.727,313.353L154.653,337.161L192.017,319.211L233.12,324.528L257.861,291.272L296.727,276.871L303.177,235.932L330.903,205.122L317.587,165.871L327.817,125.706L297.788,97.137L288.18,56.819L248.314,45.477L221.07,14.243L180.501,22.728L141.862,7.731L109.881,34.098L68.701,38.776L52.636,76.985L52.637,76.985ZM216.761,280.742L233.774,257.052L261.937,246.736L266.17,217.095L286.412,194.913L276.395,166.806L284.078,137.84L262.106,117.706L255.471,88.592L226.577,81.044L207.143,58.451L177.947,65.218L150.167,54.321L127.357,73.853L97.594,77.15L86.396,104.972L61.469,121.707L64.448,151.446L50.067,177.785L66.541,202.627L66.007,232.209L78.356,239.26L92.195,246.791L105.376,272.936L118.069,273.388L118.261,273.589L135.534,273.821L159.847,291.067L186.628,277.524L216.245,281.435L216.761,280.742Z"
        />
      </g>
      <mask id="textmask">
        <rect x="0" y="0" width="340" height="340" style="fill: white;" />
        <path
          d="M274.325,244.784C274.325,271.12 261.665,285.129 238.581,285.129L205.817,285.129C197.487,285.129 190.939,282.647 185.081,279.839C170.502,272.852 169.064,241.181 169.064,241.181L132.196,241.181L132.196,280.645C132.196,283.725 130.956,285.127 128.224,285.127L102.413,285.127C99.931,285.127 98.441,283.727 98.441,280.645L98.441,249.868L98.131,249.373L98.655,97.966L69.646,97.966C67.164,97.966 65.674,96.284 65.674,93.483L65.674,65.464C65.674,62.664 67.164,60.984 69.647,60.984L131.251,60.984L158.546,60.923C163.315,60.54 164.919,62.86 164.619,66.804L164.619,91.422L170.619,91.422C172.787,71.547 185.831,60.108 208.749,60.983L238.581,60.983C261.666,60.983 274.325,74.991 274.325,101.328L274.325,118.878L274.326,202.76L274.326,244.782L274.325,244.784Z"
          style="fill-rule: nonzero;"
          fill="black"
        />
      </mask>
    </svg>
